; --------------------------------------------------------------------
N0100 G64 CFTCP
N0105 M0
N0110 MODECHECK(2) ; Machinemode-check
N0115 MAMILL
N0120 ; Tool: T8000_Side miller D125mm
N0125 ; R331.32-125Q32EM *11.00*
N0130 ; N331.1A-08 45 08H-PM 4230
N0135 ; C8-391.05-32 030M
N0145 MATLCH("DISKD125",0,1)
N0155 G54
N0160 G19
N0165 WGTRANS(1) ; 4Axis-Head1 on
N0170 G95 M3 S255 M41
N0175 MSG("횞챔챰챵챤창챤책 척챨책챌책챨챤창횪챠챔책 챦횪챌챤창 챦챤채 챘횪챦챗챔 채챔챰챗챤창챤챕 ")
N0180 M58 ; C-Axis Unclamp
N0185 G0 C180
N0190 M59 ; C-Axis Clamp

TRANS Z-8 X0.3;X0.8


 Z=71.304
 Y-58.346
 X=160+10 M147
 X105;X104.88;X103.88
 G01 G42 Z70.304 Y4.154 F0.4
 Z68.304
 G02 Z-17 Y-70 K0.0 J-86.142
 G01 Z-31.237 Y-171.302
 Z-31.515 Y-173.282
 G40 Z30.237 Y-182.971
 G00 X170

 Z71.304
 Y-58.346
 X170 M08
 X96.28
 G01 G42 Z70.304 Y4.154 F0.4
 Z68.304
 G02 Z-17 Y-70 K0.0 J-86.142
 G01 Z-31.237 Y-171.302
 Z-31.515 Y-173.282
 G40 Z30.237 Y-182.971
 G00 X170

 Z71.304
 Y-58.346
 X170 M08
 X88.98
 G01 G42 Z70.304 Y4.154 F0.4
 Z68.304
 G02 Z-17 Y-70 K0.0 J-86.142
 G01 Z-31.237 Y-171.302
 Z-31.515 Y-173.282
 G40 Z30.237 Y-182.971
 G00 X170

 Z71.304
 Y-58.346
 X170 M08
 X85.85
 G01 G42 Z70.304 Y4.154 F0.4
 Z68.304
 G02 Z-17 Y-70 K0.0 J-86.142
 G01 Z-31.237 Y-171.302
 Z-31.515 Y-173.282
 G40 Z30.237 Y-182.971
 G00 X170
TRANS

G0 X180
MATLRET
M17
