
N100 G64 CFTCP
N105 M1 
N110 MODECHECK(2) ; Machinemode-check 
N115 MAMILL
N120 MSG("LEFT PAZ")
N125 MATLCH("FR16R3",-90, 1,0)
N130 ;--------------------------
R50=$TC_MPP6[9998,1]
R100 = $TC_DP6[R50,1] ; TOOL RADIUS

N140 R101 = 5 ; START Z LEFT 5
N145 R102 = 5 ;START Z RIGHT 5
N150 R103 = 9 ; CONST END Z
RCHECK

N155 ;--------------------------
N160 G54
N165 G17
N170 WGTRANS(1) ; 4Axis-Head1 on
N175 G94
N180 M58 ; C-Axis Unclamp
N185 G95 M3 S1300 M41 ;S2200 M42
N190 G0 C90
N195 G0 G54 G90 Z10
N200 X180
N205 M59 ; C-Axis Clamp
N210 G0 G54 Z10
N215 Y=-20.23+R100
N220 X180
N225 Z3
N230 WHILE R101<R103
N235 R101=R101+1
N240 G1 Z=-R101 F1 M8 M147
N245 X=88.3+R100 F0.12
N250 Y=35-R100
N255 X=82.16+R100 F0.02
N260 X=115.4-R100 F0.12
N265 Y=1.77-R100
N270 X180
N275 G0 Y=-20.23+R100
N280 X180
N285 ENDWHILE
N290 G0 Z10
N295 

N300 MSG("RIGHT PAZ")
N305 MATLCH("FR16R3",-90, 1,0)
N310 G54
N315 G17
N320 WGTRANS(1) ; 4Axis-Head1 on
N325 MIRROR Y0
N330 G94
N335 M58 ; C-Axis Unclamp
N340 G95 M3 S1300 M41 ;S2200 M42
N345 G0 C-90
N350 G0 G54 G90 Z10
N355 X180
N360 M59 ; C-Axis Clamp
N365 G0 G54 Z10
N370 Y=-20.23+R100
N375 X180
N380 Z3
N385 WHILE R102<R103
N390 R102=R102+1
N395 G1 Z=-R102 F1 M8 M147
N400 X=88.3+R100 F0.12
N405 Y=35-R100
N410 X=82.16+R100 F0.02
N415 X=115.4-R100 F0.12 
N420 Y=1.77-R100
N425 X180
N430 G0 Y=-20.23+R100
N435 X180
N440 ENDWHILE
N445 G0 Z10

N450 MSG("MEASURE DEPTH 4MM(+0.18)")
N455 
N460 MIRROR
N465 MATLRET
N470 M17
 
 
